X:16452
T:The Banshee
T:McMahon's Reel
R:Reel
C:James McMahon
A:Irish
M:4/4
L:1/8
B:Bulmer and Sharpley
D:Barde
K:G
DE|:"G"~G3 D EDEG | "D"AGAB ~d2 Bd | "G"efge "Em"dBGA | "C"BAGE "D"EDDE |
"G"GFGD EDEG | "D"AGAB ~d2 Bd | "G"efge dBGA | "D"BAGE EDD2 :| 
"Am"eaag efge | "Em"dBBA ~B3 d | "G"eB~B2 egfg | "C"eBBA "D"B3d|
"Am"eaag efge | "Em"dBBA B3d | "G"efed BAGA | "D"BAGE ED D2 :|
%%newpage
